X:537
%%etbk:tnset id:271,pos:1,rep:3x,ant:
%%etbk:pldat 2016-09-04T13:17,2016-05-05T12:22,2016-05-04T15:04,2016-05-03T17:00,2016-05-02T18:40,2016-04-25T18:17,2016-04-09T15:29,2016-04-08T18:40,2016-04-07T16:28,2016-04-05T16:10,2016-04-05T15:18,2016-04-04T18:31,2016-04-03T14:26,2016-04-02T14:41,2016-03-31T16:54,2016-03-30T16:54,2016-03-28T16:11,2016-03-24T16:01,2016-03-22T16:51,2015-12-11T18:11,2015-12-10T18:53,2015-12-10T18:06,2015-12-09T15:45,2015-12-08T15:15,2015-12-07T18:32,2015-12-06T14:04,2015-12-03T18:45,2015-12-02T17:04,2015-12-01T16:43,2015-11-30T18:24,2015-11-25T15:29,2014-10-30T18:50,2014-10-29T15:36,2014-10-28T17:33,2014-10-27T18:56,2014-10-25T15:11,2014-10-23T18:45,2014-10-19T14:56,2014-10-15T18:43,2014-10-12T15:00,2014-10-09T10:20,2014-10-03T15:45,2014-01-22T16:32,2014-01-21T17:35,2014-01-19T13:51,2014-01-18T14:26,2014-01-08T15:42,2013-10-16T15:29,2013-10-14T18:10
T: City of Chicago
Z: Piano Box Version by Martin Fleischmann
H: Created 2016-05-05 /  Last Modified 2016-05-05
R: song
M: C
L: 1/8
K: Dmin
P:Intro
|"F"c4-"C"c2Ac|"dm"cd-d4z2|"F"c4-"C"c2AG|"dm"A4-A2z2|"F"c3f"C"e2dc|"dm"cd-d4dc|"F"A3A"C"G2FE|"dm"D8|
P:R
|"F"z4"C"z4|"dm"A4-AGFG|"F"GA-A2"C"z4|"am"e4-edce|"B"d4"C"c2dc|"dm"A4-A2AG|"B"F4"C"E4|"Coda""gm"D8|"dm"-D8|
P:V
|:"gm"d4"B"-d4|"C"e2-ed/c/ "dm"d4|"gm"d4"B"-d4|"C"c2-cA/G/ "dm"A4|1"dm"A8:|2"dm"A2"B"B2||
P:R SOLO
|"F"c4-"C"c2Ac|"dm"cd-d4z2|"F"c4-"C"c2Ac|"am"e8|"B"f3g"C"e3f|"dm"ed-d6|"B"z2ef "C"gfec|"gm"d4-dcBG|"dm"A8|
P:V SOLO
|:"gm"G3A "B"FD2F|"C"E2FG "dm"A4|"gm"G3A "B"FD2F|"C"FEDC "dm"D4|1"dm"D8:|2"dm"D2"B"z2||
P:Outro
|:"Coda""gm"D6FG|"dm"A5GED|"gm"D5CB,G,|"dm"A,8:|


